X:1
T: Floors Castle
C:
R:Reel
Q: 232
K:D
M:4/4
L:1/8
|:g|((3fga) AB AB dF|ED EF B3g|((3fga) AB AB dF|ED EF A3g|
((3fga) AB AB dF|ED EF B3g|((3fga) AB AB dF|ED EF A3e|
f2 fd g2 ge|f2 fd B2 de|f2 fd g2 gd|((3fga) ef d3e|
f2 fd g2 ge|f2 fd B2 de|ff fd gg ge|((3fga) ef d3:|
